X:4
T:Plain Hunt 7
M:4/8
L:1/8
K:Gmaj
gfed cBAG | fgde BcAG | fdgB eAcG |
dfBg AecG | dBfA gceG | BdAf cgeG |
BAdc fegG | ABcd efgG | AcBe dgfG |
cAeB gdfG | ceAg BfdG | ecgA fBdG |
egcf AdBG | gefc dABG | gfed cBAG |